src/assets/img/wordpressIcon.svg

<svg width="61" height="60" viewBox="0 0 61 60" fill="none" xmlns="http://www.w3.org/2000/svg">
<path d="M30.6676 1.80018C34.475 1.80018 38.1654 2.54725 41.6487 4.0144C43.3229 4.72547 44.934 5.59856 46.4372 6.61566C47.9313 7.62376 49.3355 8.78488 50.6136 10.063C51.8917 11.3411 53.0528 12.7453 54.0609 14.2394C55.078 15.7426 55.9511 17.3627 56.6622 19.0279C58.1293 22.5023 58.8764 26.1926 58.8764 30.009C58.8764 33.8254 58.1293 37.5068 56.6622 40.9901C55.9511 42.6643 55.078 44.2754 54.0609 45.7786C53.0528 47.2727 51.8917 48.6769 50.6136 49.955C49.3355 51.2331 47.9313 52.3942 46.4372 53.4023C44.934 54.4194 43.3139 55.2925 41.6487 56.0036C38.1744 57.4707 34.484 58.2178 30.6676 58.2178C26.8602 58.2178 23.1699 57.4707 19.6865 56.0036C18.0123 55.2925 16.4012 54.4194 14.898 53.4023C13.4039 52.3942 11.9997 51.2331 10.7216 49.955C9.44348 48.6769 8.28236 47.2727 7.27426 45.7786C6.25716 44.2754 5.38407 42.6553 4.673 40.9901C3.21486 37.5068 2.46778 33.8074 2.46778 30C2.46778 26.1926 3.21486 22.5023 4.682 19.0189C5.39307 17.3447 6.26616 15.7336 7.28326 14.2304C8.29137 12.7363 9.45248 11.3321 10.7306 10.054C12.0087 8.77588 13.4129 7.61476 14.907 6.60666C16.4102 5.58956 18.0303 4.71647 19.6955 4.0054C23.1699 2.54725 26.8602 1.80018 30.6676 1.80018ZM30.6676 0C14.0969 0 0.667603 13.4293 0.667603 30C0.667603 46.5707 14.0969 60 30.6676 60C47.2383 60 60.6676 46.5707 60.6676 30C60.6766 13.4293 47.2383 0 30.6676 0Z" fill="white"/>
<path d="M5.67224 30.0004C5.67224 39.8924 11.4238 48.4522 19.7677 52.5026L7.84146 19.8294C6.44632 22.9347 5.67224 26.382 5.67224 30.0004ZM47.5534 28.7403C47.5534 25.6529 46.4463 23.5107 45.4922 21.8456C44.2231 19.7844 43.035 18.0382 43.035 15.986C43.035 13.6908 44.7812 11.5485 47.2294 11.5485C47.3374 11.5485 47.4454 11.5575 47.5534 11.5665C43.107 7.48913 37.1754 5.00488 30.6677 5.00488C21.9369 5.00488 14.2501 9.48733 9.77665 16.274C10.3617 16.292 10.9198 16.301 11.3878 16.301C13.9981 16.301 18.0485 15.986 18.0485 15.986C19.3986 15.905 19.5516 17.8852 18.2105 18.0472C18.2105 18.0472 16.8514 18.2092 15.3482 18.2812L24.4571 45.3649L29.9297 28.9563L26.0323 18.2812C24.6821 18.2002 23.413 18.0472 23.413 18.0472C22.0629 17.9662 22.2249 15.905 23.575 15.986C23.575 15.986 27.7064 16.301 30.1637 16.301C32.774 16.301 36.8244 15.986 36.8244 15.986C38.1745 15.905 38.3275 17.8852 36.9864 18.0472C36.9864 18.0472 35.6272 18.2092 34.1241 18.2812L43.152 45.1579L45.7353 36.9851C46.8784 33.4117 47.5534 30.8825 47.5534 28.7403ZM31.1088 32.1876L23.602 53.9878C25.8433 54.6449 28.2105 55.0049 30.6677 55.0049C33.575 55.0049 36.3743 54.5008 38.9666 53.5918C38.9036 53.4837 38.8406 53.3667 38.7866 53.2497L31.1088 32.1876ZM52.6119 18.0112C52.72 18.8033 52.783 19.6583 52.783 20.5854C52.783 23.1237 52.3059 25.977 50.8838 29.5413L43.242 51.6116C50.6767 47.2821 55.6722 39.2263 55.6722 30.0004C55.6722 25.6529 54.5651 21.5665 52.6119 18.0112Z" fill="white"/>
</svg>

<svg width="61" height="60" fill="none" xmlns="http://www.w3.org/2000/svg"><path d="M30.668 1.8c3.807 0 7.497.747 10.98 2.214a28.304 28.304 0 0 1 8.966 6.049 28.34 28.34 0 0 1 3.447 4.176 28.656 28.656 0 0 1 2.601 4.789 28.062 28.062 0 0 1 2.214 10.981c0 3.816-.747 7.498-2.214 10.981a28.307 28.307 0 0 1-6.048 8.965 28.34 28.34 0 0 1-4.177 3.447 28.656 28.656 0 0 1-4.788 2.602 28.061 28.061 0 0 1-10.981 2.214c-3.808 0-7.498-.747-10.982-2.214a28.307 28.307 0 0 1-8.964-6.049 28.339 28.339 0 0 1-3.448-4.176 28.654 28.654 0 0 1-2.601-4.789A28.324 28.324 0 0 1 2.468 30c0-3.807.747-7.498 2.214-10.981a28.304 28.304 0 0 1 6.049-8.965 28.339 28.339 0 0 1 4.176-3.447 28.654 28.654 0 0 1 4.788-2.602A28.203 28.203 0 0 1 30.669 1.8Zm0-1.8c-16.571 0-30 13.43-30 30s13.429 30 30 30c16.57 0 30-13.43 30-30 .009-16.57-13.43-30-30-30Z" fill="#fff"/><path d="M5.672 30c0 9.892 5.752 18.452 14.096 22.503L7.84 19.829A24.77 24.77 0 0 0 5.672 30Zm41.881-1.26c0-3.087-1.107-5.23-2.06-6.894-1.27-2.062-2.458-3.808-2.458-5.86 0-2.295 1.746-4.438 4.194-4.438.108 0 .216.01.324.018a24.903 24.903 0 0 0-16.885-6.561c-8.731 0-16.418 4.482-20.891 11.269.585.018 1.143.027 1.61.027 2.611 0 6.662-.315 6.662-.315 1.35-.081 1.503 1.9.162 2.061 0 0-1.36.162-2.863.234l9.11 27.084 5.472-16.409-3.898-10.675c-1.35-.08-2.619-.234-2.619-.234-1.35-.08-1.188-2.142.162-2.061 0 0 4.131.315 6.589.315 2.61 0 6.66-.315 6.66-.315 1.35-.081 1.504 1.9.162 2.061 0 0-1.359.162-2.862.234l9.028 26.877 2.583-8.173c1.143-3.573 1.818-6.102 1.818-8.245ZM31.11 32.188l-7.507 21.8a25.061 25.061 0 0 0 15.365-.396 4.116 4.116 0 0 1-.18-.342l-7.678-21.062ZM52.612 18.01c.108.792.171 1.647.171 2.574 0 2.539-.477 5.392-1.9 8.956l-7.641 22.07c7.435-4.329 12.43-12.385 12.43-21.61 0-4.348-1.107-8.434-3.06-11.99Z" fill="#fff"/></svg>
